src/assets/tokens/sanDAI_EUR.svg

<svg width="62" height="36" viewBox="0 0 62 36" fill="none" xmlns="http://www.w3.org/2000/svg">
<g clip-path="url(#clip0_628_15932)">
<circle cx="44.4239" cy="17.9691" r="17.1436" fill="url(#paint0_linear_628_15932)"/>
<path d="M53.7757 15.608L44.4116 6.0459L35.0466 15.608L39.7287 20.3886L44.4116 15.608L49.0937 20.3886L53.7757 15.608Z" fill="white"/>
<path d="M44.0342 29.026C43.5687 29.026 43.1682 28.9421 42.8326 28.7743C42.5025 28.6011 42.2481 28.3575 42.0695 28.0436C41.8963 27.7243 41.8097 27.3481 41.8097 26.9151V23.2292H42.8813V26.9476C42.8813 27.294 42.9788 27.5673 43.1736 27.7676C43.3739 27.9678 43.6607 28.068 44.0342 28.068C44.4076 28.068 44.6918 27.9678 44.8867 27.7676C45.0869 27.5673 45.187 27.294 45.187 26.9476V23.2292H46.2587V26.9151C46.2587 27.3481 46.1694 27.7243 45.9908 28.0436C45.8176 28.3575 45.5632 28.6011 45.2276 28.7743C44.8975 28.9421 44.4997 29.026 44.0342 29.026Z" fill="#1F2333"/>
<path d="M48.7088 28.9123V23.2292H51.1769C51.5341 23.2292 51.8453 23.2915 52.1106 23.416C52.3758 23.5405 52.5814 23.7164 52.7276 23.9437C52.8737 24.171 52.9468 24.4389 52.9468 24.7474V24.8449C52.9468 25.1858 52.8656 25.4619 52.7032 25.673C52.5408 25.884 52.3406 26.0383 52.1024 26.1357V26.2819C52.3189 26.2927 52.4867 26.3685 52.6058 26.5092C52.7249 26.6445 52.7844 26.8258 52.7844 27.0531V28.9123H51.7127V27.2074C51.7127 27.0775 51.6776 26.972 51.6072 26.8908C51.5422 26.8096 51.4313 26.769 51.2743 26.769H49.7805V28.9123H48.7088ZM49.7805 25.7947H51.0632C51.3176 25.7947 51.5152 25.7271 51.6559 25.5918C51.802 25.4511 51.8751 25.267 51.8751 25.0397V24.9585C51.8751 24.7312 51.8048 24.5499 51.664 24.4146C51.5233 24.2738 51.323 24.2035 51.0632 24.2035H49.7805V25.7947Z" fill="#1F2333"/>
<path fill-rule="evenodd" clip-rule="evenodd" d="M35.801 29.0461V23.0955H39.7219V24.3373H37.1402V25.4255H39.4946V26.6673H37.1402V27.8043H39.7707V29.0461H35.801ZM42.7716 28.8934L42.7704 28.8928C42.4184 28.7081 42.1448 28.4467 41.9531 28.1098L41.9525 28.1086L41.9518 28.1074C41.7661 27.7651 41.6758 27.3661 41.6758 26.9151V23.0955H43.0151V26.9476C43.0151 27.2676 43.1042 27.5041 43.2688 27.6736C43.4368 27.8412 43.6849 27.9342 44.0341 27.9342C44.3841 27.9342 44.6287 27.8408 44.7907 27.6743L44.792 27.673C44.9618 27.5032 45.0532 27.2669 45.0532 26.9476V23.0955H46.3924V26.9151C46.3924 27.3666 46.2992 27.7659 46.1077 28.1085C45.921 28.4468 45.6467 28.7086 45.2889 28.8932L45.2882 28.8936C44.9351 29.073 44.5154 29.1598 44.0341 29.1598C43.5528 29.1598 43.1308 29.073 42.7727 28.894L42.7716 28.8934ZM45.9908 28.0436C46.1694 27.7243 46.2587 27.3481 46.2587 26.9151V23.2292H45.187V26.9476C45.187 27.294 45.0869 27.5673 44.8867 27.7676C44.6918 27.9678 44.4076 28.068 44.0342 28.068C43.6607 28.068 43.3739 27.9678 43.1736 27.7676C42.9788 27.5673 42.8813 27.294 42.8813 26.9476V23.2292H41.8097V26.9151C41.8097 27.3481 41.8963 27.7243 42.0695 28.0436C42.2481 28.3575 42.5025 28.6011 42.8326 28.7743C43.1682 28.9421 43.5687 29.026 44.0342 29.026C44.4997 29.026 44.8975 28.9421 45.2276 28.7743C45.5632 28.6011 45.8176 28.3575 45.9908 28.0436ZM48.575 29.0461V23.0955H51.1769C51.5495 23.0955 51.8809 23.1604 52.1674 23.2949C52.4534 23.4291 52.6792 23.6211 52.8401 23.8713C53.002 24.1232 53.0805 24.417 53.0805 24.7474V24.8449C53.0805 25.207 52.9941 25.5142 52.8092 25.7545C52.6717 25.9332 52.5082 26.0755 52.3191 26.1801C52.4729 26.2211 52.6041 26.3005 52.707 26.4218C52.8522 26.5873 52.9181 26.8026 52.9181 27.0531V29.0461H51.5789V27.2074C51.5789 27.1027 51.5511 27.0304 51.506 26.9784L51.5043 26.9764L51.5027 26.9743C51.4739 26.9384 51.4118 26.9028 51.2743 26.9028H49.9142V29.0461H48.575ZM49.7805 26.769H51.2743C51.4313 26.769 51.5422 26.8096 51.6072 26.8908C51.6776 26.972 51.7127 27.0775 51.7127 27.2074V28.9123H52.7844V27.0531C52.7844 26.8258 52.7249 26.6445 52.6058 26.5092C52.4867 26.3685 52.3189 26.2927 52.1024 26.2819V26.1357C52.3406 26.0383 52.5408 25.884 52.7032 25.673C52.8656 25.4619 52.9468 25.1858 52.9468 24.8449V24.7474C52.9468 24.4389 52.8737 24.171 52.7276 23.9437C52.5814 23.7164 52.3758 23.5405 52.1106 23.416C51.8453 23.2915 51.5341 23.2292 51.1769 23.2292H48.7088V28.9123H49.7805V26.769ZM51.5703 24.5101L51.5694 24.5092C51.4607 24.4005 51.2988 24.3373 51.0632 24.3373H49.9142V25.661H51.0632C51.2938 25.661 51.4542 25.6001 51.5631 25.4954C51.6797 25.383 51.7413 25.2355 51.7413 25.0397V24.9585C51.7413 24.7611 51.6814 24.6169 51.5713 24.511L51.5703 24.5101ZM51.6559 25.5918C51.5152 25.7271 51.3176 25.7947 51.0632 25.7947H49.7805V24.2035H51.0632C51.323 24.2035 51.5233 24.2738 51.664 24.4146C51.8048 24.5499 51.8751 24.7312 51.8751 24.9585V25.0397C51.8751 25.267 51.802 25.4511 51.6559 25.5918Z" fill="#1F2333"/>
</g>
<g clip-path="url(#clip1_628_15932)">
<path d="M17.7751 0.982295C27.2789 0.982297 34.9832 8.68661 34.9832 18.1904C34.9832 27.6941 27.2788 35.3984 17.7751 35.3984C8.27133 35.3984 0.567018 27.6941 0.56702 18.1904C0.567021 8.68661 8.27134 0.982294 17.7751 0.982295Z" fill="url(#paint1_linear_628_15932)"/>
<path d="M28.0104 20.9987L25.9661 20.9987C24.8235 24.0962 21.8499 26.3057 18.3533 26.3057L11.2567 26.3057L11.2567 20.9987L8.99896 20.9987L8.99896 19.1402L11.2567 19.1402L11.2567 17.151L8.99896 17.151L8.99896 15.2925L11.2567 15.2925L11.2567 10.075L18.3533 10.075C21.8155 10.075 24.7684 12.2432 25.9317 15.2925L28.0104 15.2925L28.0104 17.151L26.3998 17.151C26.4411 17.4883 26.4686 17.8393 26.4686 18.1903C26.4686 18.5139 26.4479 18.8305 26.4135 19.1402L28.0173 19.1402L28.0173 20.9987L28.0104 20.9987ZM13.1151 24.5298L18.2776 24.5298C20.7486 24.5298 22.8756 23.0843 23.8736 20.9987L13.1151 20.9987L13.1151 24.5298ZM18.2776 11.8509L13.1151 11.8509L13.1151 15.2925L23.8323 15.2925C22.8205 13.2551 20.7142 11.8509 18.2776 11.8509ZM24.4793 18.328L24.4793 18.0458C24.4793 17.7429 24.4587 17.4401 24.4174 17.151L13.1151 17.151L13.1151 19.1402L24.4243 19.1402C24.4587 18.8718 24.4793 18.6033 24.4793 18.328Z" fill="white"/>
</g>
<defs>
<linearGradient id="paint0_linear_628_15932" x1="32.8398" y1="28.3584" x2="51.9893" y2="11.3268" gradientUnits="userSpaceOnUse">
<stop offset="0.0729167" stop-color="#AAC4FD"/>
<stop offset="1" stop-color="#76A0FC"/>
</linearGradient>
<linearGradient id="paint1_linear_628_15932" x1="5.60715" y1="30.3583" x2="29.943" y2="6.02242" gradientUnits="userSpaceOnUse">
<stop stop-color="#F9AF1A"/>
<stop offset="1" stop-color="#FBC349"/>
</linearGradient>
<clipPath id="clip0_628_15932">
<rect width="34.4096" height="34.4096" fill="white" transform="translate(27.2835 0.828125)"/>
</clipPath>
<clipPath id="clip1_628_15932">
<rect width="34.4161" height="34.4161" fill="white" transform="matrix(1 1.74846e-07 1.74846e-07 -1 0.567017 35.3984)"/>
</clipPath>
</defs>
</svg>

<svg fill="none" height="36" width="62" xmlns="http://www.w3.org/2000/svg" xmlns:xlink="http://www.w3.org/1999/xlink"><linearGradient id="a" gradientUnits="userSpaceOnUse" x1="32.84" x2="51.989" y1="28.358" y2="11.327"><stop offset=".073" stop-color="#aac4fd"/><stop offset="1" stop-color="#76a0fc"/></linearGradient><linearGradient id="b" gradientUnits="userSpaceOnUse" x1="5.607" x2="29.943" y1="30.358" y2="6.022"><stop offset="0" stop-color="#f9af1a"/><stop offset="1" stop-color="#fbc349"/></linearGradient><clipPath id="c"><path d="m0 0h34.41v34.41h-34.41z" transform="translate(27.284 .828)"/></clipPath><clipPath id="d"><path d="m0 0h34.416v34.416h-34.416z" transform="matrix(1 0 0 -1 .567 35.398)"/></clipPath><g clip-path="url(#c)"><circle cx="44.424" cy="17.969" fill="url(#a)" r="17.144"/><path d="m53.776 15.608-9.364-9.562-9.365 9.562 4.682 4.78 4.683-4.78 4.682 4.78z" fill="#fff"/><g fill="#1f2333"><path d="m44.034 29.026c-.465 0-.866-.084-1.201-.252a1.841 1.841 0 0 1 -.764-.73c-.173-.32-.26-.696-.26-1.129v-3.685h1.072v3.719c0 .346.098.62.293.82.2.2.487.3.86.3.374 0 .658-.1.853-.3.2-.2.3-.474.3-.82v-3.719h1.072v3.686c0 .433-.09.81-.268 1.129a1.78 1.78 0 0 1 -.763.73c-.33.168-.728.252-1.194.252zm4.675-.114v-5.682h2.468c.357 0 .668.063.934.187.265.125.47.3.617.528.146.227.219.495.219.803v.098c0 .34-.081.617-.244.828a1.432 1.432 0 0 1 -.6.463v.146a.67.67 0 0 1 .503.227c.119.136.178.317.178.544v1.86h-1.071v-1.706a.466.466 0 0 0 -.106-.316c-.065-.081-.176-.122-.333-.122h-1.493v2.143h-1.072zm1.072-3.117h1.282c.255 0 .452-.068.593-.203a.732.732 0 0 0 .22-.552v-.081c0-.228-.071-.41-.212-.544-.14-.141-.341-.212-.6-.212h-1.284v1.592z"/><path clip-rule="evenodd" d="m35.801 29.046v-5.95h3.92v1.241h-2.58v1.088h2.354v1.242h-2.355v1.137h2.63v1.242zm6.97-.153a1.975 1.975 0 0 1 -.818-.783v-.001l-.001-.002c-.186-.342-.276-.74-.276-1.192v-3.82h1.34v3.853c0 .32.088.556.253.726.168.167.416.26.765.26.35 0 .595-.093.757-.26l.001-.001c.17-.17.261-.406.261-.725v-3.852h1.34v3.82c0 .45-.094.85-.285 1.192-.187.339-.461.6-.82.785-.353.18-.773.267-1.254.267s-.903-.087-1.261-.266h-.001zm3.22-.85c.178-.319.268-.695.268-1.128v-3.685h-1.072v3.719c0 .346-.1.62-.3.82-.195.2-.48.3-.853.3s-.66-.1-.86-.3c-.195-.2-.293-.474-.293-.82v-3.719h-1.071v3.686c0 .433.086.81.26 1.129.178.314.432.557.763.73.335.168.736.252 1.201.252.466 0 .864-.084 1.194-.252a1.78 1.78 0 0 0 .763-.73zm2.584 1.003v-5.95h2.602c.373 0 .704.064.99.199.286.134.512.326.673.576.162.252.24.546.24.876v.098c0 .362-.086.67-.27.91a1.58 1.58 0 0 1 -.49.425.75.75 0 0 1 .387.242c.145.165.211.38.211.631v1.993h-1.34v-1.839a.334.334 0 0 0 -.072-.229l-.002-.002-.001-.002c-.03-.036-.091-.071-.229-.071h-1.36v2.143zm1.206-2.277h1.493c.157 0 .268.04.333.122.07.081.106.187.106.316v1.705h1.071v-1.859c0-.227-.06-.409-.178-.544a.675.675 0 0 0 -.504-.227v-.146c.239-.098.439-.252.601-.463.163-.211.244-.487.244-.828v-.098c0-.308-.073-.576-.22-.803a1.442 1.442 0 0 0 -.616-.528 2.178 2.178 0 0 0 -.934-.187h-2.468v5.683h1.072v-2.142zm1.79-2.259h-.002c-.108-.11-.27-.173-.506-.173h-1.149v1.324h1.15c.23 0 .39-.06.5-.166a.599.599 0 0 0 .177-.455v-.081c0-.198-.06-.342-.17-.448zm.085 1.082c-.14.135-.338.203-.593.203h-1.282v-1.592h1.282c.26 0 .46.07.601.212a.72.72 0 0 1 .211.544v.08a.732.732 0 0 1 -.22.553z" fill-rule="evenodd"/></g></g><g clip-path="url(#d)"><path d="m17.775.982c9.504 0 17.208 7.705 17.208 17.208 0 9.504-7.704 17.208-17.208 17.208s-17.208-7.704-17.208-17.208c0-9.503 7.704-17.208 17.208-17.208z" fill="url(#b)"/><path d="m28.01 20.999h-2.044a8.113 8.113 0 0 1 -7.613 5.307h-7.096v-5.307h-2.258v-1.859h2.258v-1.989h-2.258v-1.858h2.258v-5.218h7.096a8.11 8.11 0 0 1 7.579 5.218h2.078v1.858h-1.61c.041.337.069.688.069 1.04 0 .323-.021.64-.056.95h1.604v1.858zm-14.895 3.53h5.163a6.2 6.2 0 0 0 5.596-3.529h-10.759v3.53zm5.163-12.678h-5.163v3.441h10.717a6.198 6.198 0 0 0 -5.554-3.441zm6.201 6.477v-.282c0-.303-.02-.606-.062-.895h-11.302v1.99h11.31c.034-.27.054-.538.054-.813z" fill="#fff"/></g></svg>
